X:155
T:Daniels Hornpipe TS.155
T:Duncan’s Hornpipe TS.155
T:Tumbler’s Hornpipe,aka TS.155
T:Washington Hornpipe,aka TS.155
M:C|
L:1/8
Q:1/2=90
S:Thomas Sands’ MS,1810,Lincolnshire
R:.hornpipe
O:England;Lincolnshire
Z:vmp.Ruairidh Greig, 2011
K:Bb
Bcde fBAB|gBaB bBAB|GBFB EBDB|cdec BAGF|
Bcde fBAB|gBaB bBAB|GBFB EBDB|ecBAB4:|
|:fBAB gBAB|gabg g^fgd|edc=B cBcd|ecdB BAGF|
Bcde fBAB |gBaB bBAB|GBFB EBDB|ecBAB4:|]

